X: 42511
T: What, Daddy?
R: polka
M: 2/4
K: Bminor
|:fB BA|FE FA|d>e fa|ba fa|
dB BA|FE FA|d>e fa|b2 b2:|
|:ba af|ba af|d>e fa|ba a2|
ba af|ba af|d>e fa|b2 b2:|

